src/assets/duotone/Star1.svg

<svg width="24" height="24" viewBox="0 0 24 24"  xmlns="http://www.w3.org/2000/svg">
<path opacity="0.4" d="M5.73986 16C5.84986 15.51 5.64986 14.81 5.29986 14.46L2.86986 12.03C2.10986 11.27 1.80986 10.46 2.02986 9.76C2.25986 9.06 2.96986 8.58 4.02986 8.4L7.14986 7.88C7.59986 7.8 8.14986 7.4 8.35986 6.99L10.0799 3.54C10.5799 2.55 11.2599 2 11.9999 2C12.7399 2 13.4199 2.55 13.9199 3.54L15.6399 6.99C15.7699 7.25 16.0399 7.5 16.3299 7.67L5.55986 18.44C5.41986 18.58 5.17986 18.45 5.21986 18.25L5.73986 16Z" />
<path d="M18.6998 14.4599C18.3398 14.8199 18.1398 15.5099 18.2598 15.9999L18.9498 19.0099C19.2398 20.2599 19.0598 21.1999 18.4398 21.6499C18.1898 21.8299 17.8898 21.9199 17.5398 21.9199C17.0298 21.9199 16.4298 21.7299 15.7698 21.3399L12.8398 19.5999C12.3798 19.3299 11.6198 19.3299 11.1598 19.5999L8.2298 21.3399C7.1198 21.9899 6.1698 22.0999 5.5598 21.6499C5.3298 21.4799 5.1598 21.2499 5.0498 20.9499L17.2098 8.7899C17.6698 8.3299 18.3198 8.1199 18.9498 8.2299L19.9598 8.3999C21.0198 8.5799 21.7298 9.0599 21.9598 9.7599C22.1798 10.4599 21.8798 11.2699 21.1198 12.0299L18.6998 14.4599Z" />
</svg>

<?xml version="1.0" encoding="UTF-8"?>
<svg width="24" height="24" viewBox="0 0 24 24" xmlns="http://www.w3.org/2000/svg">
 <path d="m5.7399 16c0.11-0.49-0.09-1.19-0.44-1.54l-2.43-2.43c-0.76-0.76-1.06-1.57-0.84-2.27 0.23-0.7 0.94-1.18 2-1.36l3.12-0.52c0.45-0.08 1-0.48 1.21-0.89l1.72-3.45c0.5-0.99 1.18-1.54 1.92-1.54s1.42 0.55 1.92 1.54l1.72 3.45c0.13 0.26 0.4 0.51 0.69 0.68l-10.77 10.77c-0.14 0.14-0.38 0.01-0.34-0.19l0.52-2.25z" opacity=".4"/>
 <path d="m18.7 14.46c-0.36 0.36-0.56 1.05-0.44 1.54l0.69 3.01c0.29 1.25 0.11 2.19-0.51 2.64-0.25 0.18-0.55 0.27-0.9 0.27-0.51 0-1.11-0.19-1.77-0.58l-2.93-1.74c-0.46-0.27-1.22-0.27-1.68 0l-2.93 1.74c-1.11 0.65-2.06 0.76-2.67 0.31-0.23-0.17-0.4-0.4-0.51-0.7l12.16-12.16c0.46-0.46 1.11-0.67 1.74-0.56l1.01 0.17c1.06 0.18 1.77 0.66 2 1.36 0.22 0.7-0.08 1.51-0.84 2.27l-2.42 2.43z"/>
</svg>
